X:1
T: Miss Cameron of Banff's Reel
C:William Marshall
R:Reel
Q: 232
K:A
M:4/4
L:1/8
|:e|ag ae fe dc|fB dB bB df|ag ae fe dc|ea gb aA ce|
ag ae fe dc|fB dB bB df|ag ae fe dc|ea gb aA ce|
aA cA eA cA|fB dB bB df|aA cA eA cA|ea gb aA ce|
aA cA eA cA|fB dB bB df|ef gb ag fe|fg af eA A:|
